X: 24
T:The Kesh Jig
M:6/8
L:1/8
R:Jig
Z:Peter Harris, pharris@cincom.co
K:G
D | GFG GAB | A2 A ABd | edd gdd | edB dBA |
 GFG GAB | ABA ABd | edd gdB | AGF G2 :|
|: A | BAB dBd  | e/2f/2ge dBA | BAB dBG | ABA AGA |
 BAB dBd | e/2f/2ge dBd | gfg aga | bgg g2 :|
